dist/img/icons/area.svg

<svg xmlns="http://www.w3.org/2000/svg" width="512" height="512"><path d="M496 88a8 8 0 008-8V16a8 8 0 00-8-8h-64a8 8 0 00-8 8v24H296V16a8 8 0 00-8-8h-64a8 8 0 00-8 8v24H88V16a8 8 0 00-8-8H16a8 8 0 00-8 8v64a8 8 0 008 8h24v128H16a8 8 0 00-8 8v64a8 8 0 008 8h24v128H16a8 8 0 00-8 8v64a8 8 0 008 8h64a8 8 0 008-8v-24h128v24a8 8 0 008 8h64a8 8 0 008-8v-24h128v24a8 8 0 008 8h64a8 8 0 008-8v-64a8 8 0 00-8-8h-24V296h24a8 8 0 008-8v-64a8 8 0 00-8-8h-24V88zM232 24h48v48h-48zM24 72V24h48v48zm0 208v-48h48v48zm48 208H24v-48h48zm208 0h-48v-48h48zm144-56v24H296v-24a8 8 0 00-8-8h-64a8 8 0 00-8 8v24H88v-24a8 8 0 00-8-8H56V296h24a8 8 0 008-8v-64a8 8 0 00-8-8H56V88h24a8 8 0 008-8V56h128v24a8 8 0 008 8h64a8 8 0 008-8V56h128v24a8 8 0 008 8h24v128h-24a8 8 0 00-8 8v64a8 8 0 008 8h24v128h-24a8 8 0 00-8 8zm64 8v48h-48v-48zm0-208v48h-48v-48zM440 72V24h48v48z"/><path d="M264 248v-48a8 8 0 00-16 0v48h-48a8 8 0 000 16h48v48a8 8 0 0016 0v-48h48a8 8 0 000-16z"/><path d="M256 160a96 96 0 1096 96 96.115 96.115 0 00-96-96zm0 176a80 80 0 1180-80 80.093 80.093 0 01-80 80z"/></svg>

<?xml version="1.0"?>
<svg xmlns="http://www.w3.org/2000/svg" width="512" height="512" viewBox="0 0 512 512"><g><path d="M496,88a8,8,0,0,0,8-8V16a8,8,0,0,0-8-8H432a8,8,0,0,0-8,8V40H296V16a8,8,0,0,0-8-8H224a8,8,0,0,0-8,8V40H88V16a8,8,0,0,0-8-8H16a8,8,0,0,0-8,8V80a8,8,0,0,0,8,8H40V216H16a8,8,0,0,0-8,8v64a8,8,0,0,0,8,8H40V424H16a8,8,0,0,0-8,8v64a8,8,0,0,0,8,8H80a8,8,0,0,0,8-8V472H216v24a8,8,0,0,0,8,8h64a8,8,0,0,0,8-8V472H424v24a8,8,0,0,0,8,8h64a8,8,0,0,0,8-8V432a8,8,0,0,0-8-8H472V296h24a8,8,0,0,0,8-8V224a8,8,0,0,0-8-8H472V88ZM232,24h48V72H232ZM24,72V24H72V72Zm0,208V232H72v48ZM72,488H24V440H72Zm208,0H232V440h48Zm144-56v24H296V432a8,8,0,0,0-8-8H224a8,8,0,0,0-8,8v24H88V432a8,8,0,0,0-8-8H56V296H80a8,8,0,0,0,8-8V224a8,8,0,0,0-8-8H56V88H80a8,8,0,0,0,8-8V56H216V80a8,8,0,0,0,8,8h64a8,8,0,0,0,8-8V56H424V80a8,8,0,0,0,8,8h24V216H432a8,8,0,0,0-8,8v64a8,8,0,0,0,8,8h24V424H432A8,8,0,0,0,424,432Zm64,8v48H440V440Zm0-208v48H440V232ZM440,72V24h48V72Z"/><path d="M264,248V200a8,8,0,0,0-16,0v48H200a8,8,0,0,0,0,16h48v48a8,8,0,0,0,16,0V264h48a8,8,0,0,0,0-16Z"/><path d="M256,160a96,96,0,1,0,96,96A96.115,96.115,0,0,0,256,160Zm0,176a80,80,0,1,1,80-80A80.093,80.093,0,0,1,256,336Z"/></g></svg>
